X:1
T:Engelska
T:(spelad som halling i Värmland)
C:importerad fritt efter Mats Berglund, Värmland
O:Skåne
Z:Åke Persson 2014-12-01
M:2/4
L:1/8
R:Engelska
N:Spelad av Mats Berglund som halling, återtagen som engelska och spelas numera allmänt i Skåne
K:A
a2 f2 | gb/g/ ec | aa ff | gb/g/ e2 :|
|: A/c/e/f/ e/f/e/d/ | BB/d/ cA | A/c/e/f/ e/f/e/d/ | BB/c/ A2 :|

